X: 35603
T: Sadam's
R: reel
M: 4/4
K: Bminor
G|"F#m"FGBd cBcd|cBcd "G"c3d|"F#m"FGBd cBcd|"A"cBcd "Bm"B3:|
|:f|"Em"gfeg fBBc|"F#m"dcde f3f|"G"gfeg fBBc|"A"dBcA "Bm"B3:|

